launcher/android/assets/skins/day/svg/map-state-wp.svg

<svg enable-background="new 0 0 78.13 78.25" height="78.25" viewBox="0 0 78.13 78.25" width="78.125" xmlns="http://www.w3.org/2000/svg" xmlns:xlink="http://www.w3.org/1999/xlink"><linearGradient id="a" gradientTransform="matrix(0 1 -1 0 -1.847377 -2.847377)" gradientUnits="objectBoundingBox" x1=".5" x2="6.19475" y1="-2.34738" y2="-2.34738"><stop offset=".427907" stop-color="#eeeaea"/><stop offset=".576744" stop-color="#fff" stop-opacity="0"/></linearGradient><linearGradient id="b" gradientTransform="matrix(0 -1 1 0 -.518768 1.518704)" gradientUnits="objectBoundingBox" x1=".499968" x2="1.53738" y1="1.01874" y2="1.01874"><stop offset="0" stop-color="#ff00d2"/><stop offset="1" stop-color="#461f49"/></linearGradient><g stroke-linejoin="round"><path d="m11.5.499988h55.125c6.0751 0 11 4.924862 11 11.000012v55.25c0 6.0751-4.9249 11-11 11h-55.125c-6.07513 0-11-4.9249-11-11v-55.25c0-6.07515 4.92487-11.000012 11-11.000012z" fill="#8c9e64" stroke="#000"/><path d="m65.9047.85419h-53.862c-5.489 0-10.017 4.21122-10.66768 9.64901 1.2857 2.512 3.85751 4.226 6.82041 4.226h61.92287c2.7386 0 5.1431-1.4643 6.5067-3.6696-.3978-5.70421-5.0455-10.20541-10.7203-10.20541z" fill="url(#a)" stroke-width=".2"/><path d="m44.5925 19.595-6.16 21.28h-3.08l-4.1475-15.4262c-.1867-.7029-.2975-1.4409-.3325-2.2138h-.28c-.0554.7642-.1852 1.4919-.3894 2.1831l-4.3706 15.4569h-3.08l-6.16-21.28h3.08l4.1519 16.0213c.1837.7233.2931 1.4495.3281 2.1787h.28c.0466-.5483.1968-1.2746.4506-2.1787l4.5894-16.0213h2.8l4.1431 16.17c.1371.5308.2494 1.2075.3369 2.03h.28c.0437-.595.1735-1.2906.3894-2.0869l4.0906-16.1131z"/><path d="m50.4725 33.035v7.84h-2.8v-21.28h5.9806c2.275 0 4.0403.5586 5.2959 1.6756 1.2557 1.1171 1.8835 2.7155 1.8835 4.795 0 2.1059-.7285 3.8121-2.1853 5.1188-1.4569 1.3067-3.2776 1.9235-5.4622 1.8506zm0-10.92v8.4h2.5069c1.6537 0 2.9093-.374 3.7668-1.1222.8575-.7481 1.2863-1.8192 1.2863-3.2134 0-2.7096-1.5984-4.0644-4.795-4.0644z"/><path d="m11.6514 56.7863h54.8219c1.4299 0 2.5891 1.1592 2.5891 2.589l0 0c0 1.4298-1.1592 2.589-2.5891 2.589h-54.8219c-1.4298 0-2.58901-1.1592-2.58901-2.589l0 0c0-1.4298 1.15921-2.589 2.58901-2.589z" fill="url(#b)" stroke-width=".2"/></g></svg>

﻿<?xml version="1.0" encoding="utf-8"?>
<!DOCTYPE svg PUBLIC "-//W3C//DTD SVG 1.1//EN" "http://www.w3.org/Graphics/SVG/1.1/DTD/svg11.dtd">
<svg xmlns="http://www.w3.org/2000/svg" xmlns:xlink="http://www.w3.org/1999/xlink" version="1.1" baseProfile="full" width="78.125" height="78.25" viewBox="0 0 78.13 78.25" enable-background="new 0 0 78.13 78.25" xml:space="preserve">
	<g>
		<path fill="#8C9E64" fill-opacity="1" stroke-linejoin="round" stroke="#000000" stroke-opacity="1" d="M 11.5,0.499988L 66.625,0.499988C 72.7001,0.499988 77.625,5.42485 77.625,11.5L 77.625,66.75C 77.625,72.8251 72.7001,77.75 66.625,77.75L 11.5,77.75C 5.42487,77.75 0.5,72.8251 0.5,66.75L 0.5,11.5C 0.5,5.42485 5.42487,0.499988 11.5,0.499988 Z "/>
		<linearGradient id="SVGID_Fill1_" gradientUnits="objectBoundingBox" x1="0.5" y1="-2.34738" x2="6.19475" y2="-2.34738" gradientTransform="rotate(90.000000 0.500000 -2.347377)">
			<stop offset="0.427907" stop-color="#EEEAEA" stop-opacity="1"/>
			<stop offset="0.576744" stop-color="#FFFFFF" stop-opacity="0"/>
		</linearGradient>
		<path fill="url(#SVGID_Fill1_)" stroke-width="0.2" stroke-linejoin="round" d="M 65.9047,0.85419L 12.0427,0.85419C 6.5537,0.85419 2.0257,5.06541 1.37502,10.5032C 2.66072,13.0152 5.23253,14.7292 8.19543,14.7292L 70.1183,14.7292C 72.8569,14.7292 75.2614,13.2649 76.625,11.0596C 76.2272,5.35539 71.5795,0.85419 65.9047,0.85419 Z "/>
	</g>
	<g>
		<path fill="#000000" fill-opacity="1" stroke-linejoin="round" d="M 44.5925,19.595L 38.4325,40.875L 35.3525,40.875L 31.205,25.4488C 31.0183,24.7459 30.9075,24.0079 30.8725,23.235L 30.5925,23.235C 30.5371,23.9992 30.4073,24.7269 30.2031,25.4181L 25.8325,40.875L 22.7525,40.875L 16.5925,19.595L 19.6725,19.595L 23.8244,35.6163C 24.0081,36.3396 24.1175,37.0658 24.1525,37.795L 24.4325,37.795C 24.4791,37.2467 24.6293,36.5204 24.8831,35.6163L 29.4725,19.595L 32.2725,19.595L 36.4156,35.765C 36.5527,36.2958 36.665,36.9725 36.7525,37.795L 37.0325,37.795C 37.0762,37.2 37.206,36.5044 37.4219,35.7081L 41.5125,19.595L 44.5925,19.595 Z "/>
		<path fill="#000000" fill-opacity="1" stroke-linejoin="round" d="M 50.4725,33.035L 50.4725,40.875L 47.6725,40.875L 47.6725,19.595L 53.6531,19.595C 55.9281,19.595 57.6934,20.1536 58.949,21.2706C 60.2047,22.3877 60.8325,23.9861 60.8325,26.0656C 60.8325,28.1715 60.104,29.8777 58.6472,31.1844C 57.1903,32.4911 55.3696,33.1079 53.185,33.035L 50.4725,33.035 Z M 50.4725,22.115L 50.4725,30.515L 52.9794,30.515C 54.6331,30.515 55.8887,30.141 56.7462,29.3928C 57.6037,28.6447 58.0325,27.5736 58.0325,26.1794C 58.0325,23.4698 56.4341,22.115 53.2375,22.115L 50.4725,22.115 Z "/>
	</g>
	<linearGradient id="SVGID_Fill2_" gradientUnits="objectBoundingBox" x1="0.499968" y1="1.01874" x2="1.53738" y2="1.01874" gradientTransform="rotate(-90.000000 0.499968 1.018736)">
		<stop offset="0" stop-color="#FF00D2" stop-opacity="1"/>
		<stop offset="1" stop-color="#461F49" stop-opacity="1"/>
	</linearGradient>
	<path fill="url(#SVGID_Fill2_)" stroke-width="0.2" stroke-linejoin="round" d="M 11.6514,56.7863L 66.4733,56.7863C 67.9032,56.7863 69.0624,57.9455 69.0624,59.3753L 69.0624,59.3753C 69.0624,60.8051 67.9032,61.9643 66.4733,61.9643L 11.6514,61.9643C 10.2216,61.9643 9.06239,60.8051 9.06239,59.3753L 9.06239,59.3753C 9.06239,57.9455 10.2216,56.7863 11.6514,56.7863 Z "/>
</svg>
